X:2
T:I'll Remember April
C:Gene De Paul
L:1/4
M:C
I:linebreak $
K:G
"G" z B c d | c B A G |"C7" A3 G |"G" F E3 |"Gm" z A _B c | _B/A/ G2 =F |$"Eø" G/A/ G3- |
"A7" G3 G |"Am" A3/2 A/ A2- |"D7" A A"Co" B c |"Bø" d2 d2- |"Bb7" d2 e d |$"Am" B c d c- ||1
"Ab7" c2 B ^A |"G" B4- |"Em" B3 G ||[K:Bb]"Cm" G3/2 G/ G2- |"F7" G A B c ||$"Bb" d2-"Ebo" d c |
"Dm" A G-"Db7" G F |"Cm" G3/2 G/ G2- |"F7" G A B c |"Bb" d3/2 d/ d2- |"Eb" d3 d ||$
[K:G]"Am" d d d d |"D7" e c d B |"G" A2 B2- |"C" B B d c ||[K:E]"F#m" B2 B2- |$"F7" B2 (3B A G |
"E" B2-"C#m" B2- ||[K:G]"Am" B4 "D7" x4:|2"Ab7" c2 B B |"G" G4- | G4 |]

